X:45
T:Tripping to the Well
Z: id:dc-polka-45
M:2/4
L:1/8
K:G Major
D|G>A BG|EG ED|G>A Bd|BA AB|!
G>A BG|EG ED|BG D/E/ F/G/|AG G:|!
B/c/|dB G>A|BG ED|dB G>A|BA AB/c/|!
dB G>A|BG ED|BG D/E/ F/G/|AG G:|!

